X:113
M:2/4
L:1/8
K:D
| EF/E/ FA | B/c/d e2 | fa/f/ ec | ec BA | 
| dB BA | FE ED | B/c/d ef | ge ed | 

